src/assets/images/visa-logo.svg

<svg width="117" height="38" viewBox="0 0 117 38" fill="none" xmlns="http://www.w3.org/2000/svg">
<g clip-path="url(#clip0_118_10783)">
<path d="M50.6995 37.452H41.2217L47.1498 0.666992H56.6271L50.6995 37.452Z" fill="white"/>
<path d="M85.0578 1.56608C83.1884 0.821791 80.2233 0 76.557 0C67.1973 0 60.6063 5.00876 60.5659 12.1698C60.4882 17.4532 65.2848 20.3877 68.8724 22.1493C72.5392 23.9495 73.7857 25.1244 73.7857 26.729C73.7484 29.1933 70.8227 30.3293 68.0939 30.3293C64.31 30.3293 62.2824 29.7436 59.2013 28.3726L57.9532 27.7848L56.627 36.0423C58.8499 37.0586 62.9453 37.9605 67.1973 38C77.1421 38 83.6165 33.0688 83.6932 25.4375C83.731 21.2501 81.1982 18.0414 75.7376 15.4195C72.4226 13.7364 70.3925 12.6015 70.3925 10.8794C70.4314 9.3138 72.1096 7.71027 75.8516 7.71027C78.9328 7.63173 81.1966 8.37498 82.9116 9.11875L83.7689 9.50937L85.0578 1.56608Z" fill="white"/>
<path d="M97.655 24.4204C98.4355 22.3071 101.439 14.1282 101.439 14.1282C101.4 14.2068 102.218 11.976 102.686 10.6065L103.348 13.7761C103.348 13.7761 105.143 22.5812 105.533 24.4204C104.052 24.4204 99.527 24.4204 97.655 24.4204ZM109.354 0.666992H102.023C99.7623 0.666992 98.0447 1.33171 97.0693 3.71906L82.9912 37.4515H92.936C92.936 37.4515 94.5733 32.9114 94.9252 31.9335C96.0162 31.9335 105.69 31.9335 107.094 31.9335C107.366 33.225 108.225 37.4515 108.225 37.4515H117L109.354 0.666992Z" fill="white"/>
<path d="M33.3062 0.666992L24.0242 25.7508L23.01 20.6635C21.2939 14.7935 15.9121 8.41575 9.90625 5.24457L18.4081 37.413H28.4307L43.3282 0.666992H33.3062Z" fill="white"/>
<path d="M15.4049 0.666992H0.156002L0 1.41024C11.8951 4.46283 19.773 11.821 23.0096 20.6651L19.6947 3.75911C19.149 1.40972 17.4718 0.74449 15.4049 0.666992Z" fill="white"/>
</g>
<defs>
<clipPath id="clip0_118_10783">
<rect width="117" height="38" fill="white"/>
</clipPath>
</defs>
</svg>

<svg xmlns="http://www.w3.org/2000/svg" width="117" height="38" fill="none" viewBox="0 0 117 38"><g fill="#fff" clip-path="url(#a)"><path d="M50.7 37.452h-9.478L47.15.667h9.477zM85.058 1.566C83.188.822 80.223 0 76.557 0c-9.36 0-15.95 5.009-15.991 12.17-.078 5.283 4.719 8.218 8.306 9.98 3.667 1.8 4.914 2.974 4.914 4.579-.038 2.464-2.963 3.6-5.692 3.6-3.784 0-5.812-.585-8.893-1.956l-1.248-.588-1.326 8.257c2.223 1.017 6.318 1.919 10.57 1.958 9.945 0 16.42-4.931 16.496-12.562.038-4.188-2.495-7.397-7.955-10.018-3.315-1.684-5.346-2.818-5.346-4.54.04-1.566 1.718-3.17 5.46-3.17 3.08-.078 5.345.665 7.06 1.409l.857.39zM97.655 24.42c.78-2.113 3.784-10.292 3.784-10.292-.039.079.779-2.152 1.247-3.521l.662 3.17s1.795 8.804 2.185 10.643zM109.354.667h-7.331c-2.26 0-3.978.665-4.954 3.052L82.991 37.452h9.945l1.99-5.518h12.168c.272 1.291 1.131 5.518 1.131 5.518H117zm-76.048 0-9.282 25.084-1.014-5.088c-1.716-5.87-7.098-12.247-13.104-15.418l8.502 32.168h10.023L43.328.667z"/><path d="M15.405.667H.156L0 1.41c11.895 3.053 19.773 10.411 23.01 19.255L19.695 3.76c-.546-2.35-2.223-3.015-4.29-3.092"/></g><defs><clipPath id="a"><path fill="#fff" d="M0 0h117v38H0z"/></clipPath></defs></svg>
